X: 33420
T: Quilty, The
R: hornpipe
M: 4/4
K: Dmajor
|:AG|FAde f2ef|gfed BdAG|FAde fd ~d2|bafd ~e2AG|
FAde f2ef|gfed BdAG|FAdf eAce|1 d2 (3cde d2:|2 (3ded ce d2||
|:de|fdcd BdAG|FAde fd ~d2|bdad gfeA|Beed (3Bcd eg|
fdcd BdAG|FAde fd ~d2|bdad gfed|(3cBA Bc d2:|

